icons/desktop/20/competitiveness-20.svg

<svg width="20" height="20" viewBox="0 0 20 20" fill="none" xmlns="http://www.w3.org/2000/svg">
<path fill-rule="evenodd" clip-rule="evenodd" d="M9.99902 1C10.9324 1 12.0398 1.05545 13.2764 1.22559L13.5879 1.28223C14.9467 1.59739 15.9865 2.70472 16.2041 4.08105C16.4992 4.03469 16.7972 4.00714 17.0967 4.00098C17.8646 4.00798 18.5791 4.27371 19.1211 4.80566C19.6801 5.35466 20 6.12025 20 6.90625V8.02246C19.9997 10.5862 17.9135 12.6719 15.3486 12.6719H15.126C15.0057 12.8574 14.8739 13.0453 14.7275 13.2324L14.4521 13.5654C13.3031 14.877 11.9652 15.5147 11.0488 15.8262C10.9918 15.8455 10.9327 15.8608 10.875 15.877V18.25H14.125C14.6082 18.25 15 18.6418 15 19.125C15 19.6082 14.6082 20 14.125 20H5.875C5.39175 20 5 19.6082 5 19.125C5 18.6418 5.39175 18.25 5.875 18.25H9.125V15.877C9.06704 15.8608 9.00843 15.8465 8.95117 15.8271L8.9502 15.8262C8.03344 15.5146 6.69563 14.8756 5.54688 13.5654C5.28694 13.2688 5.0656 12.9675 4.87402 12.6719H4.65137C2.08752 12.6719 0.000248643 10.5863 0 8.02246V6.9043C0 6.1203 0.31993 5.35464 0.87793 4.80664C1.41791 4.27473 2.12716 3.99498 2.87109 4.00098C3.18519 4.00716 3.4922 4.03435 3.79297 4.08105C4.01965 2.63606 5.14572 1.44787 6.65137 1.23535C7.65229 1.09431 8.77513 1 9.99902 1ZM9.99902 2.75C8.86522 2.75 7.82537 2.83785 6.89648 2.96875C6.10318 3.08062 5.49902 3.77795 5.49902 4.61719V5.11914C5.50166 5.15563 5.50107 5.19247 5.49902 5.22949V9.12109C5.49903 9.53232 5.54877 9.92465 5.6582 10.2871L5.70898 10.4404L5.79297 10.6621C6.00583 11.1934 6.33848 11.8133 6.86328 12.4121C7.7496 13.4229 8.78661 13.9223 9.51172 14.1689C9.82876 14.2763 10.17 14.2759 10.4854 14.1689C11.211 13.9224 12.249 13.4243 13.1357 12.4121C13.7354 11.7279 14.0841 11.016 14.29 10.4404L14.3408 10.2871C14.4493 9.92781 14.4982 9.53916 14.499 9.13184V4.61621C14.499 3.78274 13.8771 3.07481 13.0381 2.95898C11.8907 2.80112 10.8636 2.75 9.99902 2.75ZM2.86523 5.75195C2.57043 5.71098 2.30941 5.85489 2.10547 6.05469C1.87947 6.27669 1.75 6.58727 1.75 6.90527V8.02344C1.7502 9.39874 2.7135 10.5507 4.00098 10.8467L3.9834 10.793C3.81575 10.2378 3.74903 9.67077 3.74902 9.12109V5.85254C3.45835 5.79298 3.16329 5.75729 2.86523 5.75195ZM17.1562 5.75C16.8445 5.75653 16.5429 5.79263 16.249 5.85254V9.09863C16.2492 9.10608 16.25 9.11362 16.25 9.12109C16.25 9.68814 16.1777 10.2737 15.998 10.8457C17.2859 10.55 18.2498 9.39806 18.25 8.02246V6.90625C18.25 6.58725 18.1196 6.27671 17.8936 6.05371C17.6897 5.85401 17.4709 5.77103 17.1562 5.75Z" fill="black"/>
</svg>

<!-- This Source Code Form is subject to the terms of the Mozilla Public
   - License, v. 2.0. If a copy of the MPL was not distributed with this
   - file, You can obtain one at http://mozilla.org/MPL/2.0/. -->
<svg xmlns="http://www.w3.org/2000/svg" width="20" height="20" fill="context-fill" fill-opacity="context-fill-opacity" viewBox="0 0 20 20">
    <path fill-rule="evenodd" d="M9.999 1c.933 0 2.04.055 3.277.226l.312.056a3.43 3.43 0 0 1 2.616 2.8q.443-.071.893-.081c.768.007 1.482.273 2.024.805a2.96 2.96 0 0 1 .879 2.1v1.116a4.656 4.656 0 0 1-4.651 4.65h-.223a8 8 0 0 1-.399.56l-.275.333a7.9 7.9 0 0 1-3.403 2.261q-.086.029-.174.051v2.373h3.25a.875.875 0 0 1 0 1.75h-8.25a.875.875 0 0 1 0-1.75h3.25v-2.373c-.058-.016-.117-.03-.174-.05a7.9 7.9 0 0 1-3.404-2.262 8 8 0 0 1-.673-.893h-.223A4.656 4.656 0 0 1 0 8.022V6.904c0-.784.32-1.55.878-2.097A2.79 2.79 0 0 1 2.87 4q.47.01.922.08c.227-1.445 1.353-2.633 2.858-2.846C7.652 1.095 8.775 1 10 1m0 1.75c-1.134 0-2.174.088-3.103.219-.793.112-1.397.809-1.397 1.648v.502a1 1 0 0 1 0 .11v3.892c0 .411.05.804.16 1.166l.05.153.084.222a6.1 6.1 0 0 0 1.07 1.75 6.15 6.15 0 0 0 2.649 1.757c.317.107.658.107.973 0a6.14 6.14 0 0 0 2.65-1.757c.6-.684.95-1.396 1.155-1.972l.05-.153c.11-.36.158-.748.159-1.155V4.616a1.68 1.68 0 0 0-1.46-1.657 22 22 0 0 0-3.04-.209M2.865 5.752c-.295-.041-.556.103-.76.303a1.2 1.2 0 0 0-.355.85v1.118c0 1.376.963 2.528 2.251 2.824l-.018-.054a5.8 5.8 0 0 1-.234-1.672V5.853a5 5 0 0 0-.884-.101m14.291-.002a5 5 0 0 0-.907.103v3.246l.001.022a5.8 5.8 0 0 1-.252 1.725 2.9 2.9 0 0 0 2.252-2.824V6.906c0-.319-.13-.63-.356-.852-.204-.2-.423-.283-.738-.304" clip-rule="evenodd" />
</svg>
